X:1
T:Sancta et immaculata virginitas
T:Richard Dering 
T:(1580 - 1630)
T:Dering worked in London, Brussels, Venice and Rome.
T:Sancta et immaculata virginitas
T:Cantica Sacra, London, M DC LXII
T:Wim Looyestijn 2015
T:Wim Looyestijn 2015
T:Wim Looyestijn 2015
C:Richard Dering
Z:Wim Looyestijn 2015
%%score [ 1 2 ] 3
L:1/8
Q:1/4=90
M:2/2
K:C
V:1 treble-8 nm="MusicXML Part"
V:2 treble-8 nm="MusicXML Part"
V:3 bass nm="BC" snm="Bc"
V:1
 d8 | B8 | B2 c2 d2 B2 | d6 AA | A6 A2 | G8 | z8 | z8 | z8 | z8 | z4 d4 | B8 | z8 | A2 B2 c2 A2 | %14
w: Sanc-|ta|et im- ma- cu-|la- ta vir-|gi- ni-|tas,|||||sanc-|ta||et im- ma- cu-|
 ^G2 ^FE A4- | A4 ^G4 | A8 | z2 d4 dd | d3 d d4 | z2 c4 BA | B2 c4 B2 | c4 e4- | e2 dc d4- | %23
w: la- ta vir- gi-|* ni-|tas,|qui- bus te|lau- di- bus|es- se- ram|ne- * sci-|o, es-|* se- ram ne-|
 d4 ^c4 | d4 z2 d2 | BBBc d3 d | G4 z2 d2 | BBBB ^c3 c | d4 z2 B2 | ^GGGG A3 G | ^G2 G2 A4- | %31
w: * sci-|o, qui-|a quem cae- li ca- pe-|re, qui-|a quem cae- li ca- pe-|re, qui-|a quem cae- li ca- pe-|re non po-|
 A4 ^G4 | A8 | z8 | z8 | z4 z2 cd | e3 d c2 BA | B2 c4 B2 | c8 | z4 ^G4- | G4 ^G4 | ^G6 G2 | %42
w: * te-|rant,|||tu- o|gre- mi- o con- *|tu- * li-|sti.|Be-|* ne-|dic- ta|
 A2 ^G2 A2 ^F2 | ^G6 G2 | ^G8 | z4 B4- | B4 B4 | B6 B2 | c2 B2 c2 A2 | B2 c4 B2 | c4 z4 | z8 | z8 | %53
w: tu in mu- li-|e- ri-|bus,|be-|* ne-|dic- ta|tu in mu- li-|e- * ri-|bus,|||
 z4 d4 | ^cccc d3 A | B2 c2 B4 | A8 | z2 A2 ^FFFF | G3 ^F E2 G2 | ^F2 G4 F2 | G16 |] %61
w: et|be- ne- dic- tus fruc- tus|ven- tris tu-|i,|et be- ne- dic- tus|fruc- tus ven- tris|tu- * *|i.|
V:2
 z8 | z8 | z8 | z8 | z8 | d8 | B8 | B2 c2 d2 B2 | d6 AA | A6 A2 | G8 | z4 d4 | B8 | c2 d2 e2 c2 | %14
w: |||||Sanc-|ta|et im- ma- cu-|la- ta vir-|gi- ni-|tas,|sanc-|ta|et im- ma- cu-|
 e6 BB | B6 B2 | A8 | z2 B4 BB | B3 B B4 | z2 e4 dc | d6 d2 | c8 | A6 GF | E6 E2 | D8 | %25
w: la- ta vir-|gi- ni-|tas,|qui- bus te|lau- di- bus|es- se- ram|ne- sci-|o,|es- se- ram|ne- sci-|o,|
 z2 d2 BBBc | d3 d B4 | z2 G2 EEEE | ^F3 F G4 | z2 e2 cccd | e3 d c2 B2 | B6 B2 | A4 z2 cd | %33
w: qui- a quem cae- li|ca- pe- re,|qui- a quem cae- li|ca- pe- re,|qui- a quem cae- li|ca- pe- re non|po- te-|rant, tu- o|
 e3 d c2 BA | d8 | c8 | z8 | z8 | z8 | z4 B4- | B4 B4 | B6 B2 | c2 B2 c2 A2 | B6 B2 | B8 | z4 d4- | %46
w: gre- mi- o con- tu-|li-|sti.||||Be-|* ne-|dic- ta|tu in mu- li-|e- ri-|bus,|be-|
 d4 d4 | d6 d2 | e2 d2 e2 c2 | d6 d2 | c4 c4 | BBBB d3 A | B2 c2 A4 | G8 | z8 | z8 | z4 e4 | %57
w: * ne-|dic- ta|tu in mu- li-|e- ri-|bus, et|be- ne- dic- tus fruc- tus|ven- tris tu-|i,|||et|
 ^cccc d4 | B4 c2 B2 | A8 | G16 |] %61
w: be- ne- dic- tus fruc-|tus ven- tris|tu-|i.|
V:3
 G,8- | G,8 | G,8 | B,,6 C,2 | D,8 | G,,8- | G,,8 | G,8 | B,,6 C,2 | D,8 | G,,8 | G,8- | G,8 | %13
 A,,8 | E,6 D,2 | E,8 | A,,8 | G,,8- | G,,8 | C,4 A,,4 | G,,8 | C,8 | F,6 E,D, | A,,8 | D,8 | G,8 | %26
 G,4 G,,4- | G,,4 A,,4 | D,4 G,,4 | E,4 A,,4 | E,8- | E,8 | A,,4 A,4 | A,8 | G,8 | C,8 | %36
 C,2 D,2 E,2 F,2 | G,8 | C,8 | E,8- | E,8 | E,8 | A,,8 | E,8- | E,8 | G,,8- | G,,8 | G,8 | C,8 | %49
 G,,8 | C,8 | G,4 ^F,4 | G,2 C,2 D,4 | G,,8 | A,,2 A,2 ^F,4 | ^G,2 A,2 E,4 | A,,8 | A,,4 D,4 | %58
 G,,4 C,2 G,,2 | D,8 | G,,16 |] %61

